public/luts/teal-lift.cube
TITLE "teal-lift"
LUT_3D_SIZE 2
DOMAIN_MIN 0.0 0.0 0.0
DOMAIN_MAX 1.0 1.0 1.0

0.00 0.01 0.06
0.92 0.03 0.08
0.02 0.94 0.12
0.94 0.95 0.18
0.08 0.10 0.92
0.95 0.13 0.96
0.12 0.96 0.98
0.98 0.99 1.00
